icons/alert-24.svg

<svg width="24" height="24" viewBox="0 0 24 24" fill="none" xmlns="http://www.w3.org/2000/svg">
<path d="M13 17.5C13 18.0523 12.5523 18.5 12 18.5C11.4477 18.5 11 18.0523 11 17.5C11 16.9477 11.4477 16.5 12 16.5C12.5523 16.5 13 16.9477 13 17.5Z" fill="#24292E"/>
<path d="M12.75 9.25C12.75 8.83579 12.4142 8.5 12 8.5C11.5858 8.5 11.25 8.83579 11.25 9.25V13.75C11.25 14.1642 11.5858 14.5 12 14.5C12.4142 14.5 12.75 14.1642 12.75 13.75V9.25Z" fill="#24292E"/>
<path fill-rule="evenodd" clip-rule="evenodd" d="M9.83587 3.24404C10.7985 1.57946 13.2015 1.57946 14.1642 3.24404L23.1306 18.7484C24.0944 20.4151 22.8917 22.5 20.9664 22.5H3.03364C1.10834 22.5 -0.0943731 20.4151 0.869482 18.7484L9.83587 3.24404ZM12.8657 3.99498C12.4806 3.32915 11.5194 3.32915 11.1344 3.99498L2.16798 19.4994C1.78244 20.166 2.26352 21 3.03364 21H20.9664C21.7365 21 22.2176 20.166 21.8321 19.4994L12.8657 3.99498Z" fill="#24292E"/>
</svg>

<svg xmlns="http://www.w3.org/2000/svg" width="24" height="24" viewBox="0 0 24 24"><path d="M13 17.5a1 1 0 11-2 0 1 1 0 012 0zm-.25-8.25a.75.75 0 00-1.5 0v4.5a.75.75 0 001.5 0v-4.5z"/><path fill-rule="evenodd" d="M9.836 3.244c.963-1.665 3.365-1.665 4.328 0l8.967 15.504c.963 1.667-.24 3.752-2.165 3.752H3.034c-1.926 0-3.128-2.085-2.165-3.752L9.836 3.244zm3.03.751a1 1 0 00-1.732 0L2.168 19.499A1 1 0 003.034 21h17.932a1 1 0 00.866-1.5L12.866 3.994z"/></svg>
